patterns/molecules/teaser/icon.svg

<svg width="24" height="24" xmlns="http://www.w3.org/2000/svg">
  <path d="M6.5 15.5v1h4v-1h-4zm4.5-8h5l-.5-.5v1l.5-.5h-5zm0 0H6l.5.5V7l-.5.5h5zm-1.5 3H13l-.5-.5v1l.5-.5H9.5zm0 0H6l.5.5v-1l-.5.5h3.5zm-6 9v-15h17v15h-17zm.5-15c-.27614237 0-.5.22385763-.5.5v14c0 .2761424.22385763.5.5.5h16c.2761424 0 .5-.2238576.5-.5V5c0-.27614237-.2238576-.5-.5-.5H4z" fill="#5C5C5C"/>
</svg>

<?xml version="1.0" encoding="UTF-8"?>
<svg width="24px" height="24px" viewBox="0 0 24 24" version="1.1" xmlns="http://www.w3.org/2000/svg" xmlns:xlink="http://www.w3.org/1999/xlink">
    <g fill="#5C5C5C">
        <path d="M6.5,15.5 L6.5,16.5 L10.5,16.5 L10.5,15.5 L6.5,15.5 Z M11,7.5 L16,7.5 L15.5,7 L15.5,8 L16,7.5 L11,7.5 Z M11,7.5 L6,7.5 L6.5,8 L6.5,7 L6,7.5 L11,7.5 Z M9.5,10.5 L13,10.5 L12.5,10 L12.5,11 L13,10.5 L9.5,10.5 Z M9.5,10.5 L6,10.5 L6.5,11 L6.5,10 L6,10.5 L9.5,10.5 Z M3.5,19.5 L3.5,4.5 L20.5,4.5 L20.5,19.5 L3.5,19.5 Z M4,4.5 C3.72385763,4.5 3.5,4.72385763 3.5,5 L3.5,19 C3.5,19.2761424 3.72385763,19.5 4,19.5 L20,19.5 C20.2761424,19.5 20.5,19.2761424 20.5,19 L20.5,5 C20.5,4.72385763 20.2761424,4.5 20,4.5 L4,4.5 Z"></path>
    </g>
</svg>
